svgs/duotone/cart-flatbed-suitcase.svg

<svg xmlns="http://www.w3.org/2000/svg" viewBox="0 0 640 512"><!-- Font Awesome Pro 6.0.0-alpha2 by @fontawesome - https://fontawesome.com License - https://fontawesome.com/license (Commercial License) --><defs><style>.fa-secondary{opacity:.4}</style></defs><path d="M480 48C480 21.5 458.5 0 432 0H336C309.5 0 288 21.5 288 48V320H480V48ZM432 96H336V48H432V96ZM224 320H256V96H224C206.375 96 192 110.375 192 128V288C192 305.625 206.375 320 224 320ZM576 288V128C576 110.375 561.625 96 544 96H512V320H544C561.625 320 576 305.625 576 288ZM253.125 448C254.75 453 256 458.375 256 464C256 490.5 234.5 512 208 512S160 490.5 160 464C160 458.375 161.125 453 162.875 448H253.125ZM541.25 448C542.875 453 544.125 458.375 544.125 464C544.125 490.5 522.625 512 496.125 512S448.125 490.5 448.125 464C448.125 458.375 449.25 453 451 448H541.25Z" class="fa-secondary"/><path d="M512 96H480V320H512V96ZM288 96H256V320H288V96ZM624 384H128V16C128 7.25 120.75 0 112 0H16C7.25 0 0 7.25 0 16V48C0 56.75 7.25 64 16 64H64V432C64 440.75 71.25 448 80 448H624C632.75 448 640 440.75 640 432V400C640 391.25 632.75 384 624 384Z" class="fa-primary"/></svg>

<svg xmlns="http://www.w3.org/2000/svg" viewBox="0 0 640 512"><!--! Font Awesome Pro 6.0.0-alpha3 by @fontawesome - https://fontawesome.com License - https://fontawesome.com/license (Commercial License) --><defs><style>.fa-secondary{opacity:.4}</style></defs><path class="fa-primary" d="M512 96h-32v224h32V96zM288 96H256v224h32V96zM640 415.1c0 17.6-14.4 32-32 31.1H96C78.4 448 64 433.6 64 415.1V80C64 71.16 56.84 64 48 64H31.1C14.4 64 0 49.6 0 32S14.4 0 31.1 0H64c35.2 0 64 28.8 64 64v320h480C625.6 384 640 398.4 640 415.1z"/><path class="fa-secondary" d="M480 48C480 21.5 458.5 0 432 0h-96C309.5 0 288 21.5 288 48V320h192V48zM432 96h-96V48h96V96zM224 320h32V96H224C206.4 96 192 110.4 192 128v160C192 305.6 206.4 320 224 320zM576 288V128c0-17.62-14.38-32-32-32h-32v224h32C561.6 320 576 305.6 576 288zM253.1 447.1C254.7 452.1 256 458.4 256 464C256 490.5 234.5 512 208 512S160 490.5 160 464c0-5.625 1.153-11 2.903-16H253.1zM541.2 447.1c1.625 5 2.889 10.38 2.889 16c0 26.5-21.51 48-48.01 48s-47.99-21.5-47.99-48c0-5.625 1.168-11 2.918-16H541.2z"/></svg>
